assets/logos/icons/mail.svg

<svg height="24" viewBox="0 0 24 24" width="24" xmlns="http://www.w3.org/2000/svg"><path d="m19.9999999 3.99999996h-15.99999995c-1.1 0-2 .9-2 2v12.00000004c0 1.1.9 2 2 2h15.99999995c1.1000001 0 2.0000002-.9 2-2v-12.00000004c.0000002-1.1-.8999999-2-2-2zm-3.5999999 9.00000004-1.4 1.4 3.6 3.6h-13.30000003l3.60000001-3.6-1.4-1.4-3.50000002 3.5v-8.40000002l6.10000004 5.10000002c1.1.9 2.7.9 3.8 0l6-5.00000002v8.40000002zm-11.80000004-7.00000003h15.00000004l-6.8 5.70000003c-.5.3-1 .3-1.4 0z" fill="#492f5c" fill-rule="evenodd"/></svg>

<svg xmlns="http://www.w3.org/2000/svg" xmlns:xlink="http://www.w3.org/1999/xlink" width="24" height="24" viewBox="0 0 24 24">
  <defs>
    <path id="mail-a" d="M19.9999999,3.99999996 L3.99999995,3.99999996 C2.89999995,3.99999996 1.99999995,4.89999996 1.99999995,5.99999996 L1.99999995,18 C1.99999995,19.1 2.89999995,20 3.99999995,20 L19.9999999,20 C21.1,20 22.0000001,19.1 21.9999999,18 L21.9999999,5.99999996 C22.0000001,4.89999996 21.1,3.99999996 19.9999999,3.99999996 Z M16.4,13 L15,14.4 L18.6,18 L5.29999997,18 L8.89999998,14.4 L7.49999998,13 L3.99999996,16.5 L3.99999996,8.09999998 L10.1,13.2 C11.2,14.1 12.8,14.1 13.9,13.2 L19.9,8.19999998 L19.9,16.6 L16.4,13 Z M4.59999996,5.99999997 L19.6,5.99999997 L12.8,11.7 C12.3,12 11.8,12 11.4,11.7 L4.59999996,5.99999997 Z"/>
  </defs>
  <use fill="#492F5C" fill-rule="evenodd" xlink:href="#mail-a"/>
</svg>
